X: 30263
M: 3/4
L: 1/8
K: G
!p!D2 |\
!f!d2d2d2 | e2dcBA | (GFEDEF) | G4 !fine!:|\
!f!d2 |\
d2(AB)A2 | d2(AB)A2 | e2d2e2 | f4d2 |
g2B2e2 | f2A2d2 | e2G2^c2| "^D.C."d4 "Dolce."\
|: c2 |\
(d2=f2).d2 | (c2e2).c2 | (B2d2).B2 | c4 :|
!ff!G2 |\
z6 | z2z2c2 | G2z2c2 | "^Dolce."G2z2c2 |\


